public/images/slider-prev.svg

<svg viewBox="0 0 31 31" fill="none" xmlns="http://www.w3.org/2000/svg">
<path fill-rule="evenodd" clip-rule="evenodd" d="M15 30.8516C23.2843 30.8516 30 24.1358 30 15.8516C30 7.56729 23.2843 0.851562 15 0.851562C6.71573 0.851562 0 7.56729 0 15.8516C0 24.1358 6.71573 30.8516 15 30.8516ZM15 28.1243C8.222 28.1243 2.72731 22.6296 2.72731 15.8515C2.72731 9.0735 8.222 3.57881 15 3.57881C21.7781 3.57881 27.2728 9.0735 27.2728 15.8515C27.2728 22.6296 21.7781 28.1243 15 28.1243ZM16.763 9.43284L18.6915 11.3613L14.2012 15.8516L18.6915 20.3419L16.763 22.2704L10.3442 15.8516L16.763 9.43284Z" fill="black"/>
</svg>

<svg viewBox="0 0 31 31" fill="none" xmlns="http://www.w3.org/2000/svg"><path fill-rule="evenodd" clip-rule="evenodd" d="M15 30.852c8.284 0 15-6.716 15-15 0-8.285-6.716-15-15-15-8.284 0-15 6.715-15 15 0 8.284 6.716 15 15 15zm0-2.728c-6.778 0-12.273-5.494-12.273-12.272C2.727 9.072 8.222 3.579 15 3.579S27.273 9.073 27.273 15.85c0 6.779-5.495 12.273-12.273 12.273zm1.763-18.691l1.928 1.928-4.49 4.49 4.49 4.49-1.928 1.93-6.419-6.42 6.419-6.418z" fill="#000"/></svg>
